src/assets/img/startup-co-single2.svg

<svg width="42" height="42" viewBox="0 0 42 42" fill="none" xmlns="http://www.w3.org/2000/svg">
<circle cx="21.0117" cy="21.4434" r="20.5" fill="#15A0DC"/>
<g clip-path="url(#clip0)">
<path d="M14.8485 20.5894L15.7395 20.7154L14.8485 20.5894ZM14.8305 20.7154L13.9395 20.5894L14.8305 20.7154ZM27.1749 20.5894L28.0659 20.4634L27.1749 20.5894ZM27.1929 20.7154L26.3019 20.8414L27.1929 20.7154ZM24.6117 31.4434V32.3434C24.8504 32.3434 25.0793 32.2485 25.2481 32.0798C25.4169 31.911 25.5117 31.6821 25.5117 31.4434H24.6117ZM17.4117 31.4434H16.5117C16.5117 31.6821 16.6065 31.911 16.7753 32.0798C16.9441 32.2485 17.173 32.3434 17.4117 32.3434V31.4434ZM16.0707 25.4188L16.7835 24.868L16.0707 25.4188ZM25.9527 25.4188L25.2399 24.868L25.9527 25.4188ZM18.3117 35.9434H23.7117V34.1434H18.3117V35.9434ZM13.9557 20.4634L13.9377 20.5894L15.7197 20.8414L15.7377 20.7154L13.9557 20.4634ZM21.0117 14.3434C19.2959 14.3431 17.6375 14.9619 16.3413 16.0862C15.045 17.2105 14.198 18.7647 13.9557 20.4634L15.7377 20.7154C15.9193 19.4461 16.5526 18.2849 17.5214 17.4451C18.4903 16.6052 19.7295 16.143 21.0117 16.1434V14.3434ZM28.0677 20.4634C27.8254 18.7647 26.9784 17.2105 25.6822 16.0862C24.3859 14.9619 22.7276 14.3431 21.0117 14.3434V16.1434C22.2938 16.1434 23.5329 16.6057 24.5016 17.4455C25.4704 18.2853 26.1038 19.4463 26.2857 20.7154L28.0677 20.4634ZM28.0857 20.5894L28.0677 20.4634L26.2857 20.7154L26.3037 20.8414L28.0857 20.5894ZM26.6637 25.9696C27.7977 24.5044 28.3701 22.5946 28.0857 20.5876L26.3037 20.8432C26.4068 21.551 26.3659 22.2723 26.1834 22.9639C26.0009 23.6555 25.6806 24.3032 25.2417 24.868L26.6637 25.9696ZM23.7117 28.5634V31.4434H25.5117V28.5652H23.7117V28.5634ZM24.6117 30.5434H17.4117V32.3434H24.6117V30.5434ZM18.3117 31.4434V28.5652H16.5117V31.4434H18.3117ZM13.9377 20.5894C13.8009 21.5357 13.8563 22.4999 14.1006 23.4243C14.345 24.3487 14.7732 25.2144 15.3597 25.9696L16.7817 24.868C16.3428 24.3032 16.0225 23.6555 15.84 22.9639C15.6576 22.2723 15.6166 21.551 15.7197 20.8432L13.9377 20.5876V20.5894ZM18.3117 28.5634C18.3117 27.082 17.5233 25.822 16.7817 24.8662L15.3597 25.9678C16.0491 26.8588 16.5117 27.7102 16.5117 28.5634H18.3117ZM25.2417 24.8662C24.4983 25.8238 23.7117 27.082 23.7117 28.5634H25.5117C25.5117 27.7102 25.9743 26.8588 26.6637 25.9678L25.2417 24.8662ZM20.1117 8.94336V12.5434H21.9117V8.94336H20.1117ZM7.51172 23.3434H11.1117V21.5434H7.51172V23.3434ZM30.9117 23.3434H34.5117V21.5434H30.9117V23.3434ZM13.5489 15.5062L10.8489 12.8062L9.57452 14.0806L12.2745 16.7806L13.5489 15.5062ZM29.7489 16.7806L32.4489 14.0806L31.1745 12.8062L28.4745 15.5062L29.7489 16.7806Z" fill="white"/>
</g>
<defs>
<clipPath id="clip0">
<rect width="27" height="27" fill="white" transform="translate(7.51172 8.94336)"/>
</clipPath>
</defs>
</svg>

<svg width="42" height="42" fill="none" xmlns="http://www.w3.org/2000/svg"><circle cx="21.012" cy="21.443" r="20.5" fill="#15A0DC"/><g clip-path="url(#clip0)"><path d="M14.848 20.59l.891.125-.89-.126zm-.018.125l-.89-.126.89.126zm12.345-.126l.89-.126-.89.126zm.018.126l-.891.126.89-.126zm-2.581 10.728v.9a.9.9 0 00.9-.9h-.9zm-7.2 0h-.9a.9.9 0 00.9.9v-.9zM16.07 25.42l.712-.551-.712.55zm9.882 0l-.713-.551.713.55zm-7.641 10.524h5.4v-1.8h-5.4v1.8zm-4.356-15.48l-.018.126 1.782.252.018-.126-1.782-.252zm7.056-6.12a7.126 7.126 0 00-7.056 6.12l1.782.252a5.326 5.326 0 015.274-4.572v-1.8zm7.056 6.12a7.126 7.126 0 00-7.056-6.12v1.8a5.328 5.328 0 015.274 4.572l1.782-.252zm.018.126l-.018-.126-1.782.252.018.126 1.782-.252zm-1.422 5.38a7.122 7.122 0 001.422-5.381l-1.782.255a5.311 5.311 0 01-1.062 4.025l1.422 1.102zm-2.952 2.594v2.88h1.8v-2.878h-1.8v-.002zm.9 1.98h-7.2v1.8h7.2v-1.8zm-6.3.9v-2.878h-1.8v2.878h1.8zM13.938 20.59a7.113 7.113 0 001.422 5.38l1.422-1.101a5.312 5.312 0 01-1.062-4.025l-1.782-.255v.001zm4.374 7.974c0-1.481-.789-2.741-1.53-3.697l-1.422 1.102c.69.89 1.152 1.742 1.152 2.595h1.8zm6.93-3.697c-.744.958-1.53 2.216-1.53 3.697h1.8c0-.853.462-1.704 1.152-2.595l-1.422-1.102zm-5.13-15.923v3.6h1.8v-3.6h-1.8zm-12.6 14.4h3.6v-1.8h-3.6v1.8zm23.4 0h3.6v-1.8h-3.6v1.8zm-17.363-7.837l-2.7-2.7-1.274 1.275 2.7 2.7 1.274-1.275zm16.2 1.275l2.7-2.7-1.274-1.275-2.7 2.7 1.274 1.275z" fill="#fff"/></g><defs><clipPath id="clip0"><path fill="#fff" transform="translate(7.512 8.943)" d="M0 0h27v27H0z"/></clipPath></defs></svg>
